_includes/icons/ios-laptop.svg

<svg fill="#666" height="50" viewBox="0 0 50 50" width="50" xmlns="http://www.w3.org/2000/svg"><path d="m5.9511719 4.0058594c-1.0516114 0-1.9453125.8610011-1.9453125 1.9257812v25.0800784c0 .358137.0956515.683942.2519531.96875-.0652914.11311-.1243387.234551-.1679687.373047a.89558955.89558955 0 0 0 -.0019532.001953l-2.8222656 8.996093a.97959795.97959795 0 0 0 -.2460938.648438v3c.0000002 1.059495.8554868 1.980469 1.9375 1.980469h44.0839848c1.081969 0 1.939453-.920974 1.939453-1.980469v-3a.97959795.97959795 0 0 0 -.246094-.648438l-2.822266-8.996093c-.043872-.140554-.103764-.26257-.169921-.376953.155782-.284466.251953-.609296.251953-.966797v-25.0800784c0-1.0647801-.893701-1.9257812-1.945313-1.9257812zm.0429687 1.9882812h38.0117184v25.0175784c0-.0974-.078539-.00586-.005859-.00586h-4.898438a1.0001 1.0001 0 0 0 -.101562-.005859h-28a1.0001 1.0001 0 0 0 -.099609.005859h-4.900391c.072717 0-.0058594-.09158-.0058594.00586zm-.2226562 26.9785154c.0045053.000486.0091563-.000457.0136718 0 .0022591.007694.0095512.004309.0175782.001953.065962.006129.1293038.019532.1972656.019532h3.7207031l-.6914062 2.763671a1.0001 1.0001 0 0 0 .9707031 1.242188h30a1.0001 1.0001 0 0 0 .970703-1.242188l-.691406-2.763671h3.720703c.066565 0 .12871-.011697.193359-.017579.010514.004353.020775.005409.023438-.003906.003869-.000395.007857.000416.011719 0l2.52539 8.046875h-43.5078122zm6.0097656.027344h26.4375l.5 2h-27.4375zm9.21875 5-1 2h10l-1-2zm-18.0195312 4.980469h44.0390622v2.019531c0 .04451-.00048.019531.021485.019531h-44.0625004c.001006-.002459.0019528-.003606.0019532-.019531z"/></svg>

<svg xmlns="http://www.w3.org/2000/svg" viewBox="0 0 50 50" width="50" height="50" fill="#666"><path style="line-height:normal;text-indent:0;text-align:start;text-decoration-line:none;text-decoration-style:solid;text-decoration-color:#000;text-transform:none;block-progression:tb;isolation:auto;mix-blend-mode:normal" d="M 5.9511719 4.0058594 C 4.8995605 4.0058594 4.0058594 4.8668605 4.0058594 5.9316406 L 4.0058594 31.011719 C 4.0058594 31.369856 4.1015109 31.695661 4.2578125 31.980469 C 4.1925211 32.093579 4.1334738 32.21502 4.0898438 32.353516 A 0.89558955 0.89558955 0 0 0 4.0878906 32.355469 L 1.265625 41.351562 A 0.97959795 0.97959795 0 0 0 1.0195312 42 L 1.0195312 45 C 1.0195314 46.059495 1.875018 46.980469 2.9570312 46.980469 L 47.041016 46.980469 C 48.122985 46.980469 48.980469 46.059495 48.980469 45 L 48.980469 42 A 0.97959795 0.97959795 0 0 0 48.734375 41.351562 L 45.912109 32.355469 C 45.868237 32.214915 45.808345 32.092899 45.742188 31.978516 C 45.89797 31.69405 45.994141 31.36922 45.994141 31.011719 L 45.994141 5.9316406 C 45.994141 4.8668605 45.10044 4.0058594 44.048828 4.0058594 L 5.9511719 4.0058594 z M 5.9941406 5.9941406 L 44.005859 5.9941406 L 44.005859 31.011719 C 44.005859 30.914319 43.92732 31.005859 44 31.005859 L 39.101562 31.005859 A 1.0001 1.0001 0 0 0 39 31 L 11 31 A 1.0001 1.0001 0 0 0 10.900391 31.005859 L 6 31.005859 C 6.072717 31.005859 5.9941406 30.914279 5.9941406 31.011719 L 5.9941406 5.9941406 z M 5.7714844 32.972656 C 5.7759897 32.973142 5.7806407 32.972199 5.7851562 32.972656 C 5.7874153 32.98035 5.7947074 32.976965 5.8027344 32.974609 C 5.8686964 32.980738 5.9320382 32.994141 6 32.994141 L 9.7207031 32.994141 L 9.0292969 35.757812 A 1.0001 1.0001 0 0 0 10 37 L 40 37 A 1.0001 1.0001 0 0 0 40.970703 35.757812 L 40.279297 32.994141 L 44 32.994141 C 44.066565 32.994141 44.12871 32.982444 44.193359 32.976562 C 44.203873 32.980915 44.214134 32.981971 44.216797 32.972656 C 44.220666 32.972261 44.224654 32.973072 44.228516 32.972656 L 46.753906 41.019531 L 3.2460938 41.019531 L 5.7714844 32.972656 z M 11.78125 33 L 38.21875 33 L 38.71875 35 L 11.28125 35 L 11.78125 33 z M 21 38 L 20 40 L 30 40 L 29 38 L 21 38 z M 2.9804688 42.980469 L 47.019531 42.980469 L 47.019531 45 C 47.019531 45.04451 47.019051 45.019531 47.041016 45.019531 L 2.9785156 45.019531 C 2.9795216 45.017072 2.9804684 45.015925 2.9804688 45 L 2.9804688 42.980469 z"/></svg>
